assets/img/braze_icons/corner-left-down.svg

<svg fill="none" height="24" viewBox="0 0 24 24" width="24" xmlns="http://www.w3.org/2000/svg"><path d="m21 3h-3.4444c-1.6426-.00001-2.9365-.00001-3.9778.08507-1.0624.08679-1.9495.2671-2.7557.67788-1.31717.67112-2.38803 1.74198-3.05914 3.05912-.41079.8062-.59109 1.69336-.67789 2.75571-.08508 1.04132-.08508 2.33522-.08507 3.97782v4.0302l-3.29289-3.2929c-.39053-.3905-1.02369-.3905-1.41422 0-.39052.3905-.39052 1.0237 0 1.4142l5 5c.39053.3905 1.02369.3905 1.41422 0l4.99999-5c.3905-.3905.3905-1.0237 0-1.4142s-1.0237-.3905-1.4142 0l-3.2929 3.2929v-3.9858c0-1.6967.00078-2.909.07843-3.85936.07669-.93867.22336-1.53333.46654-2.01059.47933-.94081 1.24423-1.70572 2.18503-2.18508.4773-.24318 1.072-.38985 2.0106-.46655.9504-.07764 2.1627-.07842 3.8594-.07842h3.4c.5523 0 1-.44771 1-1 0-.55228-.4477-1-1-1z" fill="#801ed7"/></svg>

<svg width="24" height="24" viewBox="0 0 24 24" fill="none" xmlns="http://www.w3.org/2000/svg">
<path d="M21 3H17.5556C15.913 2.99999 14.6191 2.99999 13.5778 3.08507C12.5154 3.17186 11.6283 3.35217 10.8221 3.76295C9.50493 4.43407 8.43407 5.50493 7.76296 6.82207C7.35217 7.62827 7.17187 8.51543 7.08507 9.57778C6.99999 10.6191 6.99999 11.913 7 13.5556L7 17.5858L3.70711 14.2929C3.31658 13.9024 2.68342 13.9024 2.29289 14.2929C1.90237 14.6834 1.90237 15.3166 2.29289 15.7071L7.29289 20.7071C7.68342 21.0976 8.31658 21.0976 8.70711 20.7071L13.7071 15.7071C14.0976 15.3166 14.0976 14.6834 13.7071 14.2929C13.3166 13.9024 12.6834 13.9024 12.2929 14.2929L9 17.5858L9 13.6C9 11.9033 9.00078 10.691 9.07843 9.74064C9.15512 8.80197 9.30179 8.20731 9.54497 7.73005C10.0243 6.78924 10.7892 6.02433 11.73 5.54497C12.2073 5.30179 12.802 5.15512 13.7406 5.07842C14.691 5.00078 15.9033 5 17.6 5L21 5C21.5523 5 22 4.55229 22 4C22 3.44772 21.5523 3 21 3Z" fill="#801ED7"/>
</svg>
